packages/ui-solid/icons/heart_28.svg

<svg width="28" height="28" viewBox="0 0 28 28" fill="none" xmlns="http://www.w3.org/2000/svg">
<path fill-rule="evenodd" clip-rule="evenodd" d="M14.0001 5.12561C13.0056 4.19416 11.6573 3.44797 10.1772 3.1761C8.41551 2.85253 6.46747 3.20514 4.77496 4.69982C3.64708 5.69587 2.94151 7.26291 2.70771 8.95627C2.47194 10.6639 2.70153 12.585 3.54154 14.3654C4.14926 15.6534 5.59603 17.2737 7.09941 18.7651C8.6358 20.2894 10.3464 21.7887 11.5983 22.8485C12.9901 24.0267 15.01 24.0267 16.4018 22.8485C17.6537 21.7888 19.3643 20.2894 20.9007 18.7652C22.4041 17.2737 23.8509 15.6534 24.4586 14.3654C25.2986 12.585 25.5282 10.6639 25.2924 8.95628C25.0586 7.26292 24.3531 5.69589 23.2252 4.69984C21.5327 3.20516 19.5846 2.85254 17.823 3.17611C16.3428 3.44798 14.9946 4.19416 14.0001 5.12561ZM9.85198 4.94648C8.57825 4.71253 7.20432 4.95584 5.96646 6.04902C5.24691 6.68446 4.68345 7.80712 4.4908 9.20246C4.30011 10.5835 4.48662 12.1501 5.16944 13.5973C5.62416 14.561 6.84582 15.978 8.36713 17.4873C9.85543 18.9638 11.5257 20.4287 12.7613 21.4746C13.4819 22.0846 14.5182 22.0846 15.2388 21.4746C16.4744 20.4287 18.1447 18.9638 19.633 17.4873C21.1543 15.978 22.376 14.561 22.8307 13.5973C23.5135 12.1501 23.7 10.5835 23.5093 9.20247C23.3167 7.80713 22.7532 6.68448 22.0337 6.04903C20.7958 4.95586 19.4219 4.71254 18.1482 4.94649C16.8438 5.18607 15.6456 5.93039 14.8769 6.80327C14.4125 7.33069 13.5876 7.33069 13.1232 6.80327C12.3545 5.93039 11.1563 5.18606 9.85198 4.94648Z" fill="#007AFF"/>
</svg>

<svg xmlns="http://www.w3.org/2000/svg" width="28" height="28" fill="none"><path fill="currentColor" fill-rule="evenodd" d="M14 5.126c-.994-.932-2.343-1.678-3.823-1.95-1.761-.323-3.71.03-5.402 1.524-1.128.996-1.833 2.563-2.067 4.256a9.7 9.7 0 0 0 .834 5.41c.607 1.287 2.054 2.908 3.557 4.4 1.537 1.523 3.247 3.023 4.5 4.083a3.706 3.706 0 0 0 4.803 0c1.252-1.06 2.962-2.56 4.499-4.084 1.503-1.491 2.95-3.112 3.558-4.4a9.7 9.7 0 0 0 .833-5.409c-.233-1.693-.939-3.26-2.067-4.256-1.692-1.495-3.64-1.847-5.402-1.524-1.48.272-2.828 1.018-3.823 1.95m-4.148-.18c-1.274-.233-2.648.01-3.886 1.103-.72.635-1.283 1.758-1.475 3.153a7.9 7.9 0 0 0 .678 4.395c.455.964 1.677 2.381 3.198 3.89 1.488 1.477 3.159 2.942 4.394 3.988.72.61 1.757.61 2.478 0 1.235-1.046 2.906-2.511 4.394-3.988 1.521-1.509 2.743-2.926 3.198-3.89a7.9 7.9 0 0 0 .678-4.395c-.192-1.395-.756-2.518-1.475-3.153-1.238-1.093-2.612-1.336-3.886-1.103-1.304.24-2.502.984-3.271 1.857a1.17 1.17 0 0 1-1.754 0c-.768-.873-1.967-1.617-3.271-1.857" clip-rule="evenodd"/></svg>
